flaticon/design/eyedropper.svg

<svg xmlns="http://www.w3.org/2000/svg" width="32" height="32" viewBox="0 0 24 24">
    <path d="M 23.214844 4.367188 C 24.15625 3.425781 24.261719 1.914062 23.457031 0.925781 C 23.007812 0.375 22.339844 0.0390625 21.628906 0.00390625 C 20.921875 -0.03125 20.222656 0.234375 19.71875 0.734375 L 17.496094 2.960938 C 17.027344 3.429688 16.207031 3.429688 15.738281 2.960938 L 15.492188 2.714844 C 15.128906 2.351562 14.539062 2.351562 14.175781 2.714844 L 12.523438 4.367188 C 12.160156 4.730469 12.160156 5.320312 12.523438 5.683594 L 13.347656 6.511719 L 4.488281 15.375 C 3.832031 16.03125 3.34375 16.84375 3.0625 17.761719 C 2.832031 18.519531 2.414062 19.210938 1.855469 19.769531 L 0.00390625 21.625 L 2.378906 24 L 4.214844 22.164062 C 4.78125 21.59375 5.488281 21.175781 6.261719 20.945312 C 7.164062 20.675781 7.992188 20.183594 8.660156 19.515625 L 17.507812 10.671875 L 18.335938 11.496094 C 18.511719 11.671875 18.746094 11.769531 18.992188 11.769531 C 19.242188 11.769531 19.476562 11.671875 19.652344 11.496094 L 21.304688 9.84375 C 21.480469 9.667969 21.578125 9.433594 21.578125 9.183594 C 21.578125 8.9375 21.480469 8.703125 21.304688 8.527344 L 21.058594 8.28125 C 20.574219 7.796875 20.574219 7.007812 21.058594 6.523438 Z M 8.066406 18.921875 C 7.5 19.492188 6.792969 19.910156 6.023438 20.140625 C 5.117188 20.40625 4.289062 20.902344 3.621094 21.570312 L 2.378906 22.8125 L 1.191406 21.625 L 2.449219 20.363281 C 3.105469 19.707031 3.59375 18.894531 3.875 17.976562 C 4.105469 17.222656 4.523438 16.527344 5.082031 15.96875 L 13.945312 7.105469 L 16.914062 10.074219 Z M 20.464844 8.875 L 20.710938 9.121094 C 20.734375 9.140625 20.738281 9.167969 20.738281 9.183594 C 20.738281 9.203125 20.734375 9.226562 20.710938 9.25 L 19.058594 10.902344 C 19.023438 10.9375 18.964844 10.9375 18.929688 10.902344 L 13.117188 5.089844 C 13.082031 5.054688 13.082031 4.996094 13.117188 4.960938 L 14.769531 3.308594 C 14.789062 3.289062 14.8125 3.28125 14.835938 3.28125 C 14.859375 3.28125 14.882812 3.289062 14.898438 3.308594 L 15.144531 3.554688 C 15.539062 3.945312 16.058594 4.164062 16.617188 4.164062 C 17.171875 4.164062 17.695312 3.945312 18.089844 3.554688 L 20.3125 1.328125 C 20.648438 0.996094 21.105469 0.816406 21.589844 0.839844 C 22.070312 0.867188 22.503906 1.085938 22.808594 1.457031 C 23.34375 2.113281 23.261719 3.132812 22.621094 3.773438 L 20.464844 5.929688 C 19.652344 6.742188 19.652344 8.0625 20.464844 8.875 Z M 20.464844 8.875"/>
    <path d="M12.785156 9.363281L8.628906 13.519531C8.460938 13.683594 8.460938 13.949219 8.628906 14.113281 8.707031 14.195312 8.816406 14.238281 8.925781 14.238281 9.03125 14.238281 9.140625 14.195312 9.222656 14.113281L13.378906 9.957031C13.542969 9.792969 13.542969 9.527344 13.378906 9.363281 13.214844 9.199219 12.949219 9.199219 12.785156 9.363281zM8.042969 15.121094C8.042969 15.351562 7.855469 15.539062 7.621094 15.539062 7.390625 15.539062 7.203125 15.351562 7.203125 15.121094 7.203125 14.886719 7.390625 14.699219 7.621094 14.699219 7.855469 14.699219 8.042969 14.886719 8.042969 15.121094zM8.042969 15.121094"/>
</svg>

<svg xmlns="http://www.w3.org/2000/svg" width="32" height="32" viewBox="0 0 24 24">
    <path d="M23.215 4.367c.941-.941 1.047-2.453.242-3.441a2.525 2.525 0 0 0-1.828-.922 2.543 2.543 0 0 0-1.91.73l-2.223 2.227c-.469.469-1.289.469-1.758 0l-.246-.246a.931.931 0 0 0-1.316 0l-1.653 1.652a.931.931 0 0 0 0 1.317l.825.828-8.86 8.863a5.733 5.733 0 0 0-1.426 2.387 4.838 4.838 0 0 1-1.207 2.008L.004 21.625 2.379 24l1.836-1.836a4.829 4.829 0 0 1 2.047-1.219 5.709 5.709 0 0 0 2.398-1.43l8.848-8.843.828.824a.925.925 0 0 0 1.316 0l1.653-1.652a.928.928 0 0 0 0-1.317l-.246-.246a1.245 1.245 0 0 1 0-1.758zM8.066 18.922a4.839 4.839 0 0 1-2.043 1.219 5.659 5.659 0 0 0-2.402 1.43L2.38 22.811 1.19 21.625l1.258-1.262a5.733 5.733 0 0 0 1.426-2.386c.23-.754.648-1.45 1.207-2.008l8.863-8.864 2.97 2.97zM20.465 8.875l.246.246a.08.08 0 0 1 .027.063c0 .02-.004.043-.027.066l-1.652 1.652a.092.092 0 0 1-.13 0L13.118 5.09a.092.092 0 0 1 0-.13L14.77 3.31a.091.091 0 0 1 .066-.028c.023 0 .047.008.062.028l.247.246a2.085 2.085 0 0 0 2.945 0l2.223-2.227a1.691 1.691 0 0 1 2.496.129c.535.656.453 1.676-.188 2.316L20.465 5.93a2.084 2.084 0 0 0 0 2.945zm0 0"/>
    <path d="M12.785 9.363L8.63 13.52a.413.413 0 0 0 0 .593.41.41 0 0 0 .297.125.424.424 0 0 0 .297-.125l4.156-4.156a.42.42 0 1 0-.594-.594zm0 0M8.043 15.121a.42.42 0 1 1-.839-.003.42.42 0 0 1 .839.003zm0 0"/>
</svg>
